resources/web/wwi/images/icons/proto_parameter.svg

<?xml version="1.0" encoding="UTF-8" standalone="no"?>
<svg
   version="1.1"
   width="512px"
   height="512px"
   style="shape-rendering:geometricPrecision; text-rendering:geometricPrecision; image-rendering:optimizeQuality; fill-rule:evenodd; clip-rule:evenodd"
   id="svg50"
   sodipodi:docname="proto_parameter.svg"
   inkscape:version="1.2.1 (0f2f062aeb, 2022-09-21, custom)"
   xmlns:inkscape="http://www.inkscape.org/namespaces/inkscape"
   xmlns:sodipodi="http://sodipodi.sourceforge.net/DTD/sodipodi-0.dtd"
   xmlns="http://www.w3.org/2000/svg"
   xmlns:svg="http://www.w3.org/2000/svg">
  <defs
     id="defs54" />
  <sodipodi:namedview
     id="namedview52"
     pagecolor="#ffffff"
     bordercolor="#666666"
     borderopacity="1.0"
     inkscape:showpageshadow="2"
     inkscape:pageopacity="0.0"
     inkscape:pagecheckerboard="0"
     inkscape:deskcolor="#d1d1d1"
     showgrid="false"
     inkscape:zoom="0.4609375"
     inkscape:cx="256"
     inkscape:cy="257.08475"
     inkscape:window-width="1920"
     inkscape:window-height="1016"
     inkscape:window-x="1920"
     inkscape:window-y="27"
     inkscape:window-maximized="1"
     inkscape:current-layer="svg50" />
  <g
     id="g20">
    <path
       style="opacity:0.972"
       fill="#fefffe"
       d="M 420.5,54.5 C 427.535,54.0077 433.868,55.841 439.5,60C 450.067,69.897 459.9,80.397 469,91.5C 471.297,98.4606 470.63,105.127 467,111.5C 461.985,116.682 456.819,121.682 451.5,126.5C 431.723,110.226 412.39,93.3929 393.5,76C 400.136,70.3655 406.469,64.3655 412.5,58C 415.158,56.522 417.825,55.3554 420.5,54.5 Z"
       id="path18" />
  </g>
  <g
     id="g24">
    <path
       style="opacity:0.015"
       fill="#fefffe"
       d="M 38.5,55.5 C 39.6225,57.2884 39.7891,59.2884 39,61.5C 38.5045,59.5273 38.3379,57.5273 38.5,55.5 Z"
       id="path22" />
  </g>
  <g
     id="g28">
    <path
       style="opacity:0.028"
       fill="#fefffe"
       d="M 80.5,59.5 C 81.5983,60.6009 81.765,61.9343 81,63.5C 80.51,62.2068 80.3433,60.8734 80.5,59.5 Z"
       id="path26" />
  </g>
  <g
     id="g32">
    <path
       style="opacity:0.985"
       fill="#fefffe"
       d="M 96.5,79.5 C 167.502,79.493 238.502,79.8264 309.5,80.5C 309.5,94.1667 309.5,107.833 309.5,121.5C 246.5,121.5 183.5,121.5 120.5,121.5C 121.311,210.498 121.644,299.498 121.5,388.5C 210.831,389.221 300.165,389.555 389.5,389.5C 390.179,334.169 390.512,278.836 390.5,223.5C 404.5,223.5 418.5,223.5 432.5,223.5C 431.205,284.669 431.205,345.835 432.5,407C 433.38,419.768 427.713,427.768 415.5,431C 416.167,431.333 416.833,431.667 417.5,432C 309.119,431.075 200.785,430.741 92.5,431C 89.7208,428.221 86.5541,425.054 83,421.5C 81.2068,417.954 79.7068,414.287 78.5,410.5C 79.8314,307.109 79.8314,203.609 78.5,100C 78.6667,96.8333 78.8333,93.6667 79,90.5C 79.3076,91.3081 79.8076,91.9747 80.5,92.5C 84.1194,85.8641 89.4527,81.5307 96.5,79.5 Z"
       id="path30" />
  </g>
  <g
     id="g36">
    <path
       style="opacity:0.984"
       fill="#fefffe"
       d="M 363.5,103.5 C 382.666,120.497 401.999,137.331 421.5,154C 423.007,154.837 423.507,156.004 423,157.5C 376.839,200.661 331.672,244.828 287.5,290C 278.364,294.737 269.364,294.404 260.5,289C 251.211,278.554 241.377,268.721 231,259.5C 227.519,252.008 227.852,244.675 232,237.5C 272.919,196.581 313.586,155.914 354,115.5C 357.404,111.606 360.571,107.606 363.5,103.5 Z"
       id="path34" />
  </g>
  <g
     id="g40">
    <path
       style="opacity:0.016"
       fill="#fefffe"
       d="M 341.5,122.5 C 342.833,123.167 342.833,123.167 341.5,122.5 Z"
       id="path38" />
  </g>
  <g
     id="g44">
    <path
       style="opacity:0.971"
       fill="#fefffe"
       d="M 183.5,280.5 C 187.98,280.268 192.313,280.935 196.5,282.5C 197.086,282.291 197.586,281.957 198,281.5C 201.112,288.279 205.945,293.445 212.5,297C 219.691,305.189 227.191,313.023 235,320.5C 240.395,336.209 235.229,346.709 219.5,352C 207.5,353.5 195.5,355 183.5,356.5C 170.079,354.744 162.746,347.078 161.5,333.5C 162.709,319.999 164.876,306.666 168,293.5C 171.266,286.721 176.433,282.388 183.5,280.5 Z"
       id="path42" />
  </g>
  <g
     id="g48">
    <path
       style="opacity:0.004"
       fill="#fefffe"
       d="M 77.5,398.5 C 78.8333,399.167 78.8333,399.167 77.5,398.5 Z"
       id="path46" />
  </g>
</svg>

<?xml version="1.0" encoding="UTF-8" standalone="no"?>
<svg
   version="1.1"
   id="info-svg"
   x="0px"
   y="0px"
   viewBox="0 0 512 512"
   style="enable-background:new 0 0 512 512;"
   xml:space="preserve"
   sodipodi:docname="proto_parameter.svg"
   inkscape:version="1.2.1 (0f2f062aeb, 2022-09-21, custom)"
   xmlns:inkscape="http://www.inkscape.org/namespaces/inkscape"
   xmlns:sodipodi="http://sodipodi.sourceforge.net/DTD/sodipodi-0.dtd"
   xmlns="http://www.w3.org/2000/svg"
   xmlns:svg="http://www.w3.org/2000/svg"><defs
   id="defs26" /><sodipodi:namedview
   id="namedview24"
   pagecolor="#ffffff"
   bordercolor="#666666"
   borderopacity="1.0"
   inkscape:showpageshadow="2"
   inkscape:pageopacity="0.0"
   inkscape:pagecheckerboard="0"
   inkscape:deskcolor="#d1d1d1"
   showgrid="false"
   inkscape:zoom="0.96375"
   inkscape:cx="271.85473"
   inkscape:cy="243.32036"
   inkscape:window-width="1920"
   inkscape:window-height="1016"
   inkscape:window-x="1920"
   inkscape:window-y="27"
   inkscape:window-maximized="1"
   inkscape:current-layer="g36" />
<style
   type="text/css"
   id="style18">
	.st0{fill:none;stroke:#FFFFFF;stroke-width:30;stroke-linecap:round;stroke-linejoin:round;stroke-miterlimit:10;}
	.st1{fill:none;stroke:#FFFFFF;stroke-width:40;stroke-linecap:round;stroke-linejoin:round;stroke-miterlimit:10;}
</style>


<g
   id="g20"
   style="clip-rule:evenodd;fill-rule:evenodd;image-rendering:optimizeQuality;shape-rendering:geometricPrecision;text-rendering:geometricPrecision"
   transform="translate(-4.1755618,-4.4446824)"><path
     style="opacity:0.972"
     fill="#fefffe"
     d="m 420.5,54.5 c 7.035,-0.4923 13.368,1.341 19,5.5 10.567,9.897 20.4,20.397 29.5,31.5 2.297,6.9606 1.63,13.627 -2,20 -5.015,5.182 -10.181,10.182 -15.5,15 -19.777,-16.274 -39.11,-33.1071 -58,-50.5 6.636,-5.6345 12.969,-11.6345 19,-18 2.658,-1.478 5.325,-2.6446 8,-3.5 z"
     id="path18" /></g><g
   id="g32"
   style="clip-rule:evenodd;fill-rule:evenodd;image-rendering:optimizeQuality;shape-rendering:geometricPrecision;text-rendering:geometricPrecision"
   transform="translate(-4.1755618,-4.4446824)"><path
     style="opacity:0.985"
     fill="#fefffe"
     d="m 96.5,79.5 c 71.002,-0.007 142.002,0.3264 213,1 0,13.6667 0,27.333 0,41 -63,0 -126,0 -189,0 0.811,88.998 1.144,177.998 1,267 89.331,0.721 178.665,1.055 268,1 0.679,-55.331 1.012,-110.664 1,-166 14,0 28,0 42,0 -1.295,61.169 -1.295,122.335 0,183.5 0.88,12.768 -4.787,20.768 -17,24 0.667,0.333 1.333,0.667 2,1 -108.381,-0.925 -216.715,-1.259 -325,-1 -2.7792,-2.779 -5.9459,-5.946 -9.5,-9.5 -1.7932,-3.546 -3.2932,-7.213 -4.5,-11 1.3314,-103.391 1.3314,-206.891 0,-310.5 0.1667,-3.1667 0.3333,-6.3333 0.5,-9.5 0.3076,0.8081 0.8076,1.4747 1.5,2 3.6194,-6.6359 8.9527,-10.9693 16,-13 z"
     id="path30" /></g><g
   id="g36"
   style="clip-rule:evenodd;fill-rule:evenodd;image-rendering:optimizeQuality;shape-rendering:geometricPrecision;text-rendering:geometricPrecision"
   transform="translate(-4.1755618,-4.4446824)"><path
     style="opacity:0.984"
     fill="#fefffe"
     d="m 363.5,103.5 c 19.166,16.997 38.499,33.831 58,50.5 1.507,0.837 2.007,2.004 1.5,3.5 -46.161,43.161 -91.328,87.328 -135.5,132.5 -9.136,4.737 -18.136,4.404 -27,-1 -9.289,-10.446 -19.123,-20.279 -29.5,-29.5 -3.481,-7.492 -3.148,-14.825 1,-22 40.919,-40.919 81.586,-81.586 122,-122 3.404,-3.894 6.571,-7.894 9.5,-12 z"
     id="path34" /></g><g
   id="g44"
   style="clip-rule:evenodd;fill-rule:evenodd;image-rendering:optimizeQuality;shape-rendering:geometricPrecision;text-rendering:geometricPrecision"
   transform="translate(-4.1755618,-4.4446824)"><path
     style="opacity:0.971"
     fill="#fefffe"
     d="m 183.5,280.5 c 4.48,-0.232 8.813,0.435 13,2 0.586,-0.209 1.086,-0.543 1.5,-1 3.112,6.779 7.945,11.945 14.5,15.5 7.191,8.189 14.691,16.023 22.5,23.5 5.395,15.709 0.229,26.209 -15.5,31.5 -12,1.5 -24,3 -36,4.5 -13.421,-1.756 -20.754,-9.422 -22,-23 1.209,-13.501 3.376,-26.834 6.5,-40 3.266,-6.779 8.433,-11.112 15.5,-13 z"
     id="path42" /></g>
</svg>
